!!!!SEGMENT: 
!!!COM: Beethoven
!!!OTL: Six Variations on an Original Theme
!!!Variation: Variation 6 b
**function	**harm	**kern	**kern
*M3/4	*M3/4	*staff1	*staff2
*D:	*D:	*clefG2	*clefF4
*tb16	*	*k[f#c#]	*k[f#c#]
*	*	*M3/4	*M3/4
*	*	*D:	*D:
4T	4vi	8b 8dd 8bb	8BBL
.	.	16r	8DJ 8F# 8B
.	.	16cc# 16ee 16ccc#	.
=	=	=105	=105
2T	2vi	(4dd 4ff# 4ddd	8BBL
.	.	.	8DJ 8F# 8B
.	.	8b) 8dd 8bb	8BBL
.	.	8r	8DJ 8F# 8B
4T	4V7	8cc# 8ee 8ccc#	8AAL
.	.	16r	8C#J 8E 8G
.	.	16dd 16ff# 16ddd	.
=	=	=106	=106
2.T	2.V7	(4ee 4gg 4eee	8AAL
.	.	.	8C#J 8E 8G
.	.	8cc#) 8ee 8ccc#	8AAL
.	.	8r	8C#J 8E 8G
.	.	8cc# 8ee 8ccc#	8AAL
.	.	16r	8C#J 8E 8G
.	.	16dd 16ff# 16ddd	.
=	=	=107	=107
2.T	2.V7	8ee'L 8gg' 8eee'	8AAL
.	.	8dd'J 8ff#' 8ddd'	8C#J 8E 8G
.	.	8ee'L 8gg' 8eee'	8AAL
.	.	8cc#'J 8ee' 8ccc#'	8C#J 8E 8G
.	.	8dd'L 8ff#' 8ddd'	8AAL
.	.	8ee'J 8gg' 8eee'	8C#J 8E 8G
=	=	=108	=108
2.T	2.I	8ff#'L 8aa' 8fff#'	8DL
.	.	8ee'J 8gg' 8eee'	8F#J 8A 8d
.	.	8dd'L 8ff#' 8ddd'	8DL
.	.	8ee'J 8gg' 8eee'	8F#J 8A 8d
.	.	8ff#'L 8aa' 8fff#'	8DL
.	.	8ff#'J 8aa' 8fff#'	8F#J 8A 8d
=	=	=109	=109
2.T	2.I	(4ff# 4aa 4fff#	8DL
.	.	.	8F#J 8A 8d
.	.	8dd) 8ff# 8ddd	8DL
.	.	8r	8F#J 8A 8d
.	.	8.ddL 8.ff#	8DL
.	.	.	8F#J 8A 8d
.	.	16eeJk 16gg	.
=	=	=110	=110
2.T	2.I	(4ff# 4aa	8DL
.	.	.	8F#J 8A 8d
.	.	8dd) 8ff#	8DL
.	.	8r	8F#J 8A 8d
.	.	4ff# 4fff#	8DL
.	.	.	8dJ
=	=	=111	=111
2D	2V43	8ee'L 8eee'	8E'L 8e'
.	.	8dd'J 8ddd'	8F#'J 8f#'
.	.	8cc#'L 8ccc#'	8G'L 8g'
.	.	8b'J 8bb'	8G#'J 8g#'
4D	4V7	8a'L 8aa'	8A'L 8a'
.	.	8cc#'J 8ee' 8ccc#'	8AA'J 8A'
=	=	=112	=112
8T	8I	8dd'L 8ff#' 8ddd'	8D'L 8d'
8T	8V	8cc#'J 8ee' 8ccc#'	8AA'J 8A'
4T	4I	4dd 4ff# 4ddd	4D' 4d'
*-	*- 	*-	*-
